src/Images/avatarman.svg

<svg width="28" height="36" viewBox="0 0 28 36" fill="none" xmlns="http://www.w3.org/2000/svg">
<g id="formkit:avatarman">
<g id="Union">
<path d="M7.72218 9.52422C6.38827 8.34222 6.422 6.64193 6.45289 5.08482C6.45746 4.85425 6.46197 4.62683 6.46197 4.40469C6.46197 3.20751 6.96597 3.38214 7.62918 3.61194C7.93543 3.71806 8.27562 3.83594 8.61582 3.83594C8.74691 3.83594 8.878 3.85214 9.00714 3.88061C8.684 3.31926 8.61582 2.74219 8.61582 2.74219H15.0774C17.4466 2.74219 19.385 4.71094 19.385 7.11719H20.462C20.462 7.11719 20.9155 8.49895 20.3741 9.57171C21.0646 9.93717 21.5389 10.6717 21.5389 11.5133C21.5389 12.7165 20.5697 13.7008 19.3851 13.7008V14.7946C19.3851 16.245 18.8178 17.636 17.8079 18.6616C16.7981 19.6872 15.4285 20.2633 14.0004 20.2633C12.5724 20.2633 11.2028 19.6872 10.193 18.6616C9.18314 17.636 8.61583 16.245 8.61583 14.7946V13.7008C7.43122 13.7008 6.46199 12.7165 6.46199 11.5133C6.46199 10.6335 6.98032 9.87066 7.72218 9.52422Z" fill="#CCCDC2"/>
<path d="M25.8466 29.0133C25.8466 25.3821 22.9604 22.4508 19.3851 22.4508H8.61583C5.04045 22.4508 2.1543 25.3821 2.1543 29.0133V33.3883H25.8466V29.0133Z" fill="#CCCDC2"/>
</g>
</g>
</svg>

<svg width="28" height="36" fill="none" xmlns="http://www.w3.org/2000/svg"><g fill="#CCCDC2"><path d="M7.722 9.524c-1.334-1.182-1.3-2.882-1.27-4.44.005-.23.01-.457.01-.68 0-1.196.504-1.022 1.167-.792.306.106.647.224.987.224.13 0 .262.016.391.045-.323-.562-.391-1.139-.391-1.139h6.461c2.37 0 4.308 1.969 4.308 4.375h1.077s.454 1.382-.088 2.455c.69.365 1.165 1.1 1.165 1.941 0 1.204-.97 2.188-2.154 2.188v1.094c0 1.45-.567 2.841-1.577 3.867A5.343 5.343 0 0 1 14 20.263a5.343 5.343 0 0 1-3.807-1.601 5.512 5.512 0 0 1-1.577-3.867V13.7c-1.185 0-2.154-.985-2.154-2.188 0-.88.518-1.642 1.26-1.989zM25.847 29.013c0-3.63-2.887-6.562-6.462-6.562H8.615c-3.575 0-6.46 2.931-6.46 6.562v4.375h23.692v-4.375z"/></g></svg>
